X:1
T:Atalanta.(2 voices). TWC.292
T:Atalanta.(2 voices). TWC.292
T:La Pantolon
C:La Pantolon
%%score 1 2
L:1/8
Q:3/8=120
M:6/8
K:D
V:1 treble 
V:2 bass 
V:1
"^Quadrilles   No. 1.  2d. Set" f2 f e2 d | g2 g f2 e | a2 a agf | ede f2 d | f2 f e2 d | %5
 g2 g f2 e | a2 a agf | ede d3!fine! :| a2 a d'fg | a2 a d'fg | aba d'c'b | bag f2 d | a2 a agf | %13
 d'2 d' d'c'b | e'2 e'e'd'c' | ba^g"^*" a3 ||[K:Dmin] d2 d ^c2 d | ede A2 A | f2 f e2 d | %19
 ^cde A2 A | b2 b a2 g | fed a2 a | b2 b a2 g |"^D.C. Senza replica" fef e3 |] %24
V:2
 D,3 A,,3 | B,,2 C, D,2 A,, | D,3 D,3 | A,,B,,C, D,3 | D,3 A,,3 | B,,2 C, D,2 A,, | D,2 F, G,3 | %7
 A,2 A,, D,3 :| D,3 D,3 | D,3 D,3 | F,3 G,3 | G,F,E, D,3 | D,3 D,3 | F,3 G,3 | A,3 A,,3 | %15
 D,2 E,"^*" A,,3 ||[K:Dmin] D,2 F, A,,3 | A,,3 A,3 | D,3 A,,3 | A,3 D,3 | G,2 G, F,2 E, | D,3 D,3 | %22
 G,2 G, F,2 E, | D,3 A,,3 |] %24

